X: 386
T: A Thousand Farewells
R: slide
M: 12/8
K: Dmajor
|:A/B/c|dAF EFE DB,A, A,^G,A,|FEF BAF dAF EFA|
dAF EFE DB,A, A,^G,A,|FEF BAF EDC D:|
|:FA|dcd fed afd edB|AFE DFA BAF EFA|
dcd fed afd edB|B/c/dB AFA Bdc d:|

